X: 2383
T: Balance The Straw
R: jig
M: 6/8
K: Gmajor
|:D|G2 A B2 [GB]|c2 B cA/B/c|ded cBA|1 B2 A G2:|2 G3 GBc||
|:.d3 d2 G|c2 B B2 A|e2 G d2 G|c2 [GB] B2 A|
G2 B BAB|c2 A ABc|ded cBA|1 G3 GA/B/c:|2 B2 A G2||

